images/3233662.svg

<?xml version="1.0" encoding="UTF-8"?>
<svg xmlns="http://www.w3.org/2000/svg" xmlns:xlink="http://www.w3.org/1999/xlink" width="300pt" height="300pt" viewBox="0 0 300 300" version="1.1">
<defs>
<g>
<symbol overflow="visible" id="glyph0-0">
<path style="stroke:none;" d="M 0.75 2.65625 L 0.75 -10.578125 L 8.25 -10.578125 L 8.25 2.65625 Z M 1.59375 1.8125 L 7.40625 1.8125 L 7.40625 -9.734375 L 1.59375 -9.734375 Z M 1.59375 1.8125 "/>
</symbol>
<symbol overflow="visible" id="glyph0-1">
<path style="stroke:none;" d="M 1.46875 -10.9375 L 3.46875 -10.9375 L 8.3125 -1.78125 L 8.3125 -10.9375 L 9.75 -10.9375 L 9.75 0 L 7.75 0 L 2.90625 -9.140625 L 2.90625 0 L 1.46875 0 Z M 1.46875 -10.9375 "/>
</symbol>
<symbol overflow="visible" id="glyph0-2">
<path style="stroke:none;" d="M 1.46875 -10.9375 L 2.953125 -10.9375 L 2.953125 -6.453125 L 8.328125 -6.453125 L 8.328125 -10.9375 L 9.8125 -10.9375 L 9.8125 0 L 8.328125 0 L 8.328125 -5.203125 L 2.953125 -5.203125 L 2.953125 0 L 1.46875 0 Z M 1.46875 -10.9375 "/>
</symbol>
</g>
</defs>
<g id="surface33385">
<rect x="0" y="0" width="300" height="300" style="fill:rgb(100%,100%,100%);fill-opacity:1;stroke:none;"/>
<path style="fill:none;stroke-width:1.2;stroke-linecap:butt;stroke-linejoin:miter;stroke:rgb(0%,0%,0%);stroke-opacity:1;stroke-miterlimit:10;" d="M 264.75 135.796875 L 240.046875 162.199219 "/>
<path style="fill:none;stroke-width:1.2;stroke-linecap:butt;stroke-linejoin:miter;stroke:rgb(0%,0%,0%);stroke-opacity:1;stroke-miterlimit:10;" d="M 254.234375 101.199219 L 264.75 135.796875 "/>
<path style="fill:none;stroke-width:1;stroke-linecap:butt;stroke-linejoin:miter;stroke:rgb(0%,0%,0%);stroke-opacity:1;stroke-miterlimit:10;" d="M 204.828125 154.007812 L 204.828125 154.007812 M 207.589844 155.183594 L 207.824219 154.167969 M 210.347656 156.363281 L 210.820312 154.332031 M 213.109375 157.539062 L 213.816406 154.492188 M 215.867188 158.714844 L 216.8125 154.652344 M 218.625 159.894531 L 219.808594 154.816406 M 221.386719 161.070312 L 222.804688 154.976562 M 224.144531 162.246094 L 225.796875 155.140625 M 226.90625 163.425781 L 228.792969 155.300781 M 229.664062 164.601562 L 231.789062 155.460938 M 232.421875 165.777344 L 234.785156 155.625 M 235.183594 166.957031 L 237.78125 155.785156 M 237.941406 168.132812 L 240.777344 155.945312 M 238.601562 168.414062 L 241.492188 155.984375 "/>
<path style="fill:none;stroke-width:1.2;stroke-linecap:butt;stroke-linejoin:miter;stroke:rgb(0%,0%,0%);stroke-opacity:1;stroke-miterlimit:10;" d="M 204.828125 154.007812 L 211.671875 189.511719 "/>
<path style="fill:none;stroke-width:1.2;stroke-linecap:butt;stroke-linejoin:miter;stroke:rgb(0%,0%,0%);stroke-opacity:1;stroke-miterlimit:10;" d="M 204.828125 154.007812 L 194.316406 119.414062 "/>
<path style="fill:none;stroke-width:1.2;stroke-linecap:butt;stroke-linejoin:miter;stroke:rgb(0%,0%,0%);stroke-opacity:1;stroke-miterlimit:10;" d="M 168.949219 149.542969 L 204.828125 154.007812 "/>
<path style="fill:none;stroke-width:1.2;stroke-linecap:butt;stroke-linejoin:miter;stroke:rgb(0%,0%,0%);stroke-opacity:1;stroke-miterlimit:10;" d="M 211.671875 189.511719 L 180.015625 206.992188 "/>
<path style="fill:none;stroke-width:1.2;stroke-linecap:butt;stroke-linejoin:miter;stroke:rgb(0%,0%,0%);stroke-opacity:1;stroke-miterlimit:10;" d="M 180.015625 206.992188 L 166.816406 194.640625 "/>
<path style="fill:none;stroke-width:1.2;stroke-linecap:butt;stroke-linejoin:miter;stroke:rgb(0%,0%,100%);stroke-opacity:1;stroke-miterlimit:10;" d="M 166.816406 194.640625 L 153.613281 182.289062 "/>
<path style="fill:none;stroke-width:1.2;stroke-linecap:butt;stroke-linejoin:miter;stroke:rgb(0%,0%,100%);stroke-opacity:1;stroke-miterlimit:10;" d="M 153.613281 182.289062 L 161.28125 165.914062 "/>
<path style="fill:none;stroke-width:1.2;stroke-linecap:butt;stroke-linejoin:miter;stroke:rgb(0%,0%,0%);stroke-opacity:1;stroke-miterlimit:10;" d="M 161.28125 165.914062 L 168.949219 149.542969 "/>
<path style="fill:none;stroke-width:1.2;stroke-linecap:butt;stroke-linejoin:miter;stroke:rgb(0%,0%,100%);stroke-opacity:1;stroke-miterlimit:10;" d="M 153.613281 182.289062 L 135.859375 185.707031 "/>
<path style="fill:none;stroke-width:1.2;stroke-linecap:butt;stroke-linejoin:miter;stroke:rgb(0%,0%,0%);stroke-opacity:1;stroke-miterlimit:10;" d="M 135.859375 185.707031 L 118.109375 189.128906 "/>
<path style=" stroke:none;fill-rule:nonzero;fill:rgb(100%,100%,100%);fill-opacity:1;" d="M 148.613281 173.289062 L 159.613281 173.289062 L 159.613281 191.289062 L 148.613281 191.289062 Z M 148.613281 173.289062 "/>
<g style="fill:rgb(0%,0%,100%);fill-opacity:1;">
  <use xlink:href="#glyph0-1" x="148.613281" y="186.90332"/>
</g>
<path style="fill:none;stroke-width:1.2;stroke-linecap:butt;stroke-linejoin:miter;stroke:rgb(0%,0%,0%);stroke-opacity:1;stroke-miterlimit:10;" d="M 118.109375 189.128906 L 94.433594 161.800781 "/>
<path style="fill:none;stroke-width:1.2;stroke-linecap:butt;stroke-linejoin:miter;stroke:rgb(0%,0%,0%);stroke-opacity:1;stroke-miterlimit:10;" d="M 94.433594 161.800781 L 106.257812 127.632812 "/>
<path style="fill:none;stroke-width:1.2;stroke-linecap:butt;stroke-linejoin:miter;stroke:rgb(0%,0%,0%);stroke-opacity:1;stroke-miterlimit:10;" d="M 87.574219 155.601562 L 97.039062 128.265625 "/>
<path style="fill:none;stroke-width:1.2;stroke-linecap:butt;stroke-linejoin:miter;stroke:rgb(0%,0%,0%);stroke-opacity:1;stroke-miterlimit:10;" d="M 58.925781 168.640625 L 94.433594 161.800781 "/>
<path style="fill:none;stroke-width:1.2;stroke-linecap:butt;stroke-linejoin:miter;stroke:rgb(0%,0%,0%);stroke-opacity:1;stroke-miterlimit:10;" d="M 106.257812 127.632812 L 82.582031 100.304688 "/>
<path style="fill:none;stroke-width:1.2;stroke-linecap:butt;stroke-linejoin:miter;stroke:rgb(0%,0%,0%);stroke-opacity:1;stroke-miterlimit:10;" d="M 82.582031 100.304688 L 47.078125 107.144531 "/>
<path style="fill:none;stroke-width:1.2;stroke-linecap:butt;stroke-linejoin:miter;stroke:rgb(0%,0%,0%);stroke-opacity:1;stroke-miterlimit:10;" d="M 80.640625 109.34375 L 52.238281 114.816406 "/>
<path style="fill:none;stroke-width:1.2;stroke-linecap:butt;stroke-linejoin:miter;stroke:rgb(0%,0%,0%);stroke-opacity:1;stroke-miterlimit:10;" d="M 47.078125 107.144531 L 35.25 141.316406 "/>
<path style="fill:none;stroke-width:1.2;stroke-linecap:butt;stroke-linejoin:miter;stroke:rgb(0%,0%,0%);stroke-opacity:1;stroke-miterlimit:10;" d="M 35.25 141.316406 L 58.925781 168.640625 "/>
<path style="fill:none;stroke-width:1.2;stroke-linecap:butt;stroke-linejoin:miter;stroke:rgb(0%,0%,0%);stroke-opacity:1;stroke-miterlimit:10;" d="M 44.046875 138.476562 L 62.988281 160.339844 "/>
<path style="fill:none;stroke-width:1.2;stroke-linecap:butt;stroke-linejoin:miter;stroke:rgb(0%,0%,0%);stroke-opacity:1;stroke-miterlimit:10;" d="M 194.316406 119.414062 L 206.664062 106.210938 "/>
<path style="fill:none;stroke-width:1.2;stroke-linecap:butt;stroke-linejoin:miter;stroke:rgb(0%,0%,100%);stroke-opacity:1;stroke-miterlimit:10;" d="M 206.664062 106.210938 L 219.015625 93.007812 "/>
<path style="fill:none;stroke-width:1.2;stroke-linecap:butt;stroke-linejoin:miter;stroke:rgb(0%,0%,100%);stroke-opacity:1;stroke-miterlimit:10;" d="M 219.015625 93.007812 L 236.625 97.105469 "/>
<path style="fill:none;stroke-width:1.2;stroke-linecap:butt;stroke-linejoin:miter;stroke:rgb(0%,0%,0%);stroke-opacity:1;stroke-miterlimit:10;" d="M 236.625 97.105469 L 254.234375 101.199219 "/>
<path style=" stroke:none;fill-rule:nonzero;fill:rgb(100%,100%,100%);fill-opacity:1;" d="M 208.015625 84.007812 L 231.015625 84.007812 L 231.015625 102.007812 L 208.015625 102.007812 Z M 208.015625 84.007812 "/>
<g style="fill:rgb(0%,0%,100%);fill-opacity:1;">
  <use xlink:href="#glyph0-1" x="208.015625" y="97.62207"/>
  <use xlink:href="#glyph0-2" x="218.991211" y="97.62207"/>
</g>
</g>
</svg>

<svg xmlns="http://www.w3.org/2000/svg" xmlns:xlink="http://www.w3.org/1999/xlink" width="300pt" height="300pt" viewBox="0 0 300 300"><defs><symbol overflow="visible"><path d="M.75 2.656v-13.234h7.5V2.656zm.844-.844h5.812V-9.733H1.594zm0 0"/></symbol><symbol overflow="visible" id="a"><path d="M1.47-10.938h2L8.31-1.78v-9.158H9.75V0h-2L2.906-9.14V0H1.47zm0 0"/></symbol><symbol overflow="visible" id="b"><path d="M1.47-10.938h1.483v4.485h5.375v-4.484h1.485V0H8.328v-5.203H2.953V0H1.47zm0 0"/></symbol></defs><g><path fill="#fff" d="M0 0h300v300H0z"/><path d="M264.75 135.797L240.047 162.2M254.234 101.2l10.516 34.597" stroke-width="1.2" stroke="#000" stroke-miterlimit="10" fill="none"/><path d="M204.828 154.008m2.762 1.176l.234-1.016m2.524 2.195l.472-2.03m2.29 3.206l.706-3.048m2.05 4.223l.946-4.063m1.813 5.243l1.184-5.08m1.577 6.255l1.418-6.093m1.34 7.27l1.652-7.106m1.11 8.286l1.886-8.125m.87 9.302l2.126-9.14m.632 10.315l2.363-10.152m.4 11.332l2.596-11.172m.16 12.348l2.837-12.188m-2.175 12.47l2.89-12.43" stroke="#000" stroke-miterlimit="10" fill="none"/><path d="M204.828 154.008l6.844 35.504M204.828 154.008l-10.512-34.594M168.95 149.543l35.878 4.465M211.672 189.512l-31.656 17.48M180.016 206.992l-13.2-12.35" stroke-width="1.2" stroke="#000" stroke-miterlimit="10" fill="none"/><path d="M166.816 194.64l-13.203-12.35M153.613 182.29l7.668-16.376" stroke-width="1.2" stroke="#00f" stroke-miterlimit="10" fill="none"/><path d="M161.28 165.914l7.67-16.37" stroke-width="1.2" stroke="#000" stroke-miterlimit="10" fill="none"/><path d="M153.613 182.29l-17.754 3.417" stroke-width="1.2" stroke="#00f" stroke-miterlimit="10" fill="none"/><path d="M135.86 185.707l-17.75 3.422" stroke-width="1.2" stroke="#000" stroke-miterlimit="10" fill="none"/><path d="M148.613 173.29h11v18h-11zm0 0" fill="#fff"/><use xlink:href="#a" x="148.613" y="186.903" fill="#00f"/><path d="M118.11 189.13L94.433 161.8M94.434 161.8l11.824-34.167M87.574 155.602l9.465-27.336M58.926 168.64l35.508-6.84M106.258 127.633l-23.676-27.328M82.582 100.305l-35.504 6.84M80.64 109.344l-28.402 5.472M47.078 107.145l-11.828 34.17M35.25 141.316l23.676 27.325M44.047 138.477l18.94 21.863M194.316 119.414l12.348-13.203" stroke-width="1.2" stroke="#000" stroke-miterlimit="10" fill="none"/><path d="M206.664 106.21l12.352-13.202M219.016 93.008l17.61 4.097" stroke-width="1.2" stroke="#00f" stroke-miterlimit="10" fill="none"/><path d="M236.625 97.105l17.61 4.094" stroke-width="1.2" stroke="#000" stroke-miterlimit="10" fill="none"/><path d="M208.016 84.008h23v18h-23zm0 0" fill="#fff"/><g fill="#00f"><use xlink:href="#a" x="208.016" y="97.622"/><use xlink:href="#b" x="218.991" y="97.622"/></g></g></svg>
